packages/kaspersky-hexa-ui-icons/src/iconsSVGs/64x42/FlagGq.svg

<svg xmlns="http://www.w3.org/2000/svg" width="64" height="42" fill="none" viewBox="0 0 64 42"><g clip-path="url(#a)"><rect width="64" height="42" fill="#fff" rx="5"/><path fill="#ec3938" fill-rule="evenodd" d="M0 42h64V28H0z" clip-rule="evenodd"/><path fill="#51b422" fill-rule="evenodd" d="M0 14h64V0H0z" clip-rule="evenodd"/><path fill="#159940" fill-rule="evenodd" d="M31.5124 24.7449a.354.354 0 0 0 .0985-.2428l.0237-4.1414a.614.614 0 0 0-.6141-.6176c-.547 0-.821-.6614-.4342-1.0482l1.2568-1.2568a.7.7 0 0 1 .99 0l1.255 1.255c.3875.3875.113 1.05-.4349 1.05a.615.615 0 0 0-.6151.6151v4.1399a.35.35 0 0 0 .1025.2475c.2205.2205.0643.5975-.2475.5975h-1.1257c-.3114 0-.4707-.3736-.255-.5982" clip-rule="evenodd"/><path fill="#258de7" fill-rule="evenodd" d="m0 0 19.6 21L0 42z" clip-rule="evenodd"/></g><defs><clipPath id="a"><rect width="64" height="42" fill="#fff" rx="5"/></clipPath></defs></svg>

<svg width="64" height="42" viewBox="0 0 64 42" fill="none" xmlns="http://www.w3.org/2000/svg">
<g clip-path="url(#clip0_37941_2248)">
<rect width="64" height="42" rx="5" fill="white"/>
<path fill-rule="evenodd" clip-rule="evenodd" d="M0 42H64V28H0V42Z" fill="#EC3938"/>
<path fill-rule="evenodd" clip-rule="evenodd" d="M0 14H64V0H0V14Z" fill="#51B422"/>
<path fill-rule="evenodd" clip-rule="evenodd" d="M31.5124 24.7449C31.5751 24.6795 31.6104 24.5926 31.6109 24.5021L31.6346 20.3607C31.6365 20.0202 31.361 19.7431 31.0205 19.7431C30.4735 19.7431 30.1995 19.0817 30.5863 18.6949L31.8431 17.4381C32.1165 17.1647 32.5597 17.1647 32.8331 17.4381L34.0881 18.6931C34.4756 19.0806 34.2011 19.7431 33.6532 19.7431C33.3135 19.7431 33.0381 20.0185 33.0381 20.3582V24.4981C33.0381 24.591 33.075 24.68 33.1406 24.7456C33.3611 24.9661 33.2049 25.3431 32.8931 25.3431H31.7674C31.456 25.3431 31.2967 24.9695 31.5124 24.7449Z" fill="#159940"/>
<path fill-rule="evenodd" clip-rule="evenodd" d="M0 0L19.6 21L0 42V0Z" fill="#258DE7"/>
</g>
<defs>
<clipPath id="clip0_37941_2248">
<rect width="64" height="42" rx="5" fill="white"/>
</clipPath>
</defs>
</svg>
